client/public/images/log-out.svg

<svg height="10" viewBox="0 0 15 10" width="15" xmlns="http://www.w3.org/2000/svg"><path d="m12.8571429 0h-6.55000004c-.56812958.00050015-1.11280755.22659289-1.51428572.62857143l-3.87142857 3.86428571c-.13522332.134119-.21128452.31668748-.21128452.50714286s.0760612.37302386.21128452.50714286l3.87142857 3.86428571c.40147817.40197854.94615614.62807128 1.51428572.62857143h6.55000004c1.1834673 0 2.1428571-.95938982 2.1428571-2.14285714v-5.71428572c0-1.18346732-.9593898-2.14285714-2.1428571-2.14285714zm.7142857 7.85714286c0 .3944891-.3197966.71428571-.7142857.71428571h-6.55000004c-.18911928-.00263106-.37026158-.07661877-.50714286-.20714286l-3.36428571-3.36428571 3.36428571-3.36428571c.13688128-.13052409.31802358-.2045118.50714286-.20714286h6.55000004c.3944891 0 .7142857.31979661.7142857.71428571zm-2.35-4.79285715c-.134119-.13522332-.3166875-.21128451-.5071429-.21128451s-.3730238.07606119-.5071428.21128451l-.92142861.92857143-.92142858-.92857143c-.28008726-.28008726-.73419844-.28008726-1.01428571 0-.28008727.28008727-.28008727.73419845 0 1.01428572l.92857143.92142857-.92857143.92142857c-.13522332.134119-.21128452.31668748-.21128452.50714286s.0760612.37302386.21128452.50714286c.134119.13522332.31668747.21128451.50714286.21128451.19045538 0 .37302385-.07606119.50714285-.21128451l.92142858-.92857143.92142861.92857143c.134119.13522332.3166874.21128451.5071428.21128451s.3730239-.07606119.5071429-.21128451c.1352233-.134119.2112845-.31668748.2112845-.50714286s-.0760612-.37302386-.2112845-.50714286l-.9285715-.92142857.9285715-.92142857c.1352233-.134119.2112845-.31668748.2112845-.50714286s-.0760612-.37302386-.2112845-.50714286z"/></svg>

<?xml version="1.0" encoding="UTF-8"?>
<svg width="15px" height="10px" viewBox="0 0 15 10" version="1.1" xmlns="http://www.w3.org/2000/svg" xmlns:xlink="http://www.w3.org/1999/xlink">
    <title>log-out</title>
    <g id="Page-1" stroke="none" stroke-width="1" fill="none" fill-rule="evenodd">
        <g id="Home-account-menu" transform="translate(-32.000000, -589.000000)" fill="#000000" fill-rule="nonzero">
            <g id="log-out" transform="translate(32.000000, 589.000000)">
                <path d="M12.8571429,0 L6.30714286,0 C5.73901328,0.000500148685 5.19433531,0.226592893 4.79285714,0.628571429 L0.921428571,4.49285714 C0.786205249,4.62697614 0.710144054,4.80954462 0.710144054,5 C0.710144054,5.19045538 0.786205249,5.37302386 0.921428571,5.50714286 L4.79285714,9.37142857 C5.19433531,9.77340711 5.73901328,9.99949985 6.30714286,10 L12.8571429,10 C14.0406102,10 15,9.04061018 15,7.85714286 L15,2.14285714 C15,0.959389822 14.0406102,0 12.8571429,0 Z M13.5714286,7.85714286 C13.5714286,8.25163196 13.251632,8.57142857 12.8571429,8.57142857 L6.30714286,8.57142857 C6.11802358,8.56879751 5.93688128,8.4948098 5.8,8.36428571 L2.43571429,5 L5.8,1.63571429 C5.93688128,1.5051902 6.11802358,1.43120249 6.30714286,1.42857143 L12.8571429,1.42857143 C13.251632,1.42857143 13.5714286,1.74836804 13.5714286,2.14285714 L13.5714286,7.85714286 Z M11.2214286,3.06428571 C11.0873096,2.92906239 10.9047411,2.8530012 10.7142857,2.8530012 C10.5238303,2.8530012 10.3412619,2.92906239 10.2071429,3.06428571 L9.28571429,3.99285714 L8.36428571,3.06428571 C8.08419845,2.78419845 7.63008727,2.78419845 7.35,3.06428571 C7.06991273,3.34437298 7.06991273,3.79848416 7.35,4.07857143 L8.27857143,5 L7.35,5.92142857 C7.21477668,6.05554757 7.13871548,6.23811605 7.13871548,6.42857143 C7.13871548,6.61902681 7.21477668,6.80159529 7.35,6.93571429 C7.484119,7.07093761 7.66668747,7.1469988 7.85714286,7.1469988 C8.04759824,7.1469988 8.23016671,7.07093761 8.36428571,6.93571429 L9.28571429,6.00714286 L10.2071429,6.93571429 C10.3412619,7.07093761 10.5238303,7.1469988 10.7142857,7.1469988 C10.9047411,7.1469988 11.0873096,7.07093761 11.2214286,6.93571429 C11.3566519,6.80159529 11.4327131,6.61902681 11.4327131,6.42857143 C11.4327131,6.23811605 11.3566519,6.05554757 11.2214286,5.92142857 L10.2928571,5 L11.2214286,4.07857143 C11.3566519,3.94445243 11.4327131,3.76188395 11.4327131,3.57142857 C11.4327131,3.38097319 11.3566519,3.19840471 11.2214286,3.06428571 Z" id="Shape"></path>
            </g>
        </g>
    </g>
</svg>
